svg/color/adco.svg

<?xml version="1.0" encoding="UTF-8" ?>
<!DOCTYPE svg PUBLIC "-//W3C//DTD SVG 1.1//EN" "http://www.w3.org/Graphics/SVG/1.1/DTD/svg11.dtd">
<svg width="250pt" height="250pt" viewBox="0 0 250 250" version="1.1" xmlns="http://www.w3.org/2000/svg">
<g id="#ffffffff">
<path fill="#ffffff" opacity="1.00" d=" M 0.00 0.00 L 110.62 0.00 C 103.39 1.30 96.01 1.98 88.92 4.01 C 76.48 7.51 64.26 12.27 53.44 19.44 C 30.89 33.61 14.50 56.49 6.69 81.82 C 2.89 93.72 1.09 106.15 0.00 118.56 L 0.00 0.00 Z" />
<path fill="#ffffff" opacity="1.00" d=" M 143.41 0.00 L 250.00 0.00 L 250.00 100.60 C 248.43 90.13 246.91 79.50 242.63 69.71 C 232.14 41.69 208.48 19.62 180.71 9.06 C 168.83 4.11 156.11 1.73 143.41 0.00 Z" />
<path fill="#ffffff" opacity="1.00" d=" M 84.10 29.17 C 101.16 22.27 119.88 21.75 138.02 22.49 C 159.83 24.16 182.16 31.28 198.15 46.79 C 214.53 61.86 223.94 83.79 224.64 105.94 C 224.80 115.36 225.03 124.91 222.83 134.15 C 220.40 145.45 215.86 157.15 206.44 164.44 C 201.23 168.36 193.96 170.85 187.65 168.28 C 183.92 165.97 183.00 161.12 182.71 157.06 C 182.69 137.71 182.73 118.36 182.70 99.01 C 182.79 94.35 181.93 89.72 180.44 85.31 C 175.97 72.50 164.57 62.86 151.73 59.04 C 139.05 54.39 125.26 54.90 112.00 55.78 C 101.19 57.42 90.08 59.22 80.22 64.18 C 80.13 72.40 80.05 80.62 80.28 88.84 C 94.82 83.38 110.34 79.24 126.01 80.31 C 134.01 80.83 142.33 84.12 146.99 90.94 C 150.52 96.04 150.73 102.53 150.35 108.51 C 137.36 105.44 123.90 104.45 110.62 105.86 C 100.39 107.55 90.08 111.18 82.37 118.35 C 73.54 126.21 68.75 138.24 69.33 150.01 C 68.82 160.78 73.06 171.67 80.87 179.13 C 89.59 187.62 101.96 191.69 114.01 191.38 C 129.38 191.38 144.73 185.21 155.33 173.97 C 158.47 178.05 160.57 183.07 165.06 185.95 C 173.94 191.93 185.37 191.99 195.63 190.78 C 210.72 189.25 224.73 180.82 233.77 168.73 C 244.25 154.90 248.65 137.50 250.00 120.46 L 250.00 250.00 L 0.00 250.00 L 0.00 136.43 C 0.94 144.49 1.52 152.65 3.67 160.52 C 7.17 173.18 11.88 185.67 19.29 196.59 C 33.51 218.62 56.36 234.22 81.15 242.08 C 103.79 249.42 128.03 251.05 151.62 248.64 C 170.76 247.05 189.72 243.10 207.94 236.99 C 210.47 236.73 210.08 233.90 210.16 232.07 C 210.10 226.01 210.28 219.94 209.97 213.89 C 190.84 220.91 170.73 225.11 150.41 226.55 C 134.36 228.38 118.06 227.54 102.18 224.70 C 88.16 221.94 74.74 216.13 63.02 207.98 C 50.22 198.99 40.37 186.19 34.09 171.93 C 26.13 152.79 23.84 131.54 26.12 111.02 C 28.56 88.86 36.80 66.69 52.39 50.39 C 61.15 40.99 72.33 34.14 84.10 29.17 Z" />
<path fill="#ffffff" opacity="1.00" d=" M 118.74 130.59 C 129.31 128.73 140.10 130.35 150.49 132.54 C 150.47 138.37 150.47 144.20 150.50 150.03 C 150.44 151.27 150.69 152.73 149.54 153.58 C 142.24 160.83 132.36 165.79 121.98 166.17 C 115.31 165.97 107.84 163.74 104.46 157.48 C 101.66 153.33 102.33 148.08 102.68 143.37 C 104.37 135.90 111.76 131.92 118.74 130.59 Z" />
</g>
<g id="#2b2a29ff">
<path fill="#2b2a29" opacity="1.00" d=" M 110.62 0.00 L 143.41 0.00 C 156.11 1.73 168.83 4.11 180.71 9.06 C 208.48 19.62 232.14 41.69 242.63 69.71 C 246.91 79.50 248.43 90.13 250.00 100.60 L 250.00 120.46 C 248.65 137.50 244.25 154.90 233.77 168.73 C 224.73 180.82 210.72 189.25 195.63 190.78 C 185.37 191.99 173.94 191.93 165.06 185.95 C 160.57 183.07 158.47 178.05 155.33 173.97 C 144.73 185.21 129.38 191.38 114.01 191.38 C 101.96 191.69 89.59 187.62 80.87 179.13 C 73.06 171.67 68.82 160.78 69.33 150.01 C 68.75 138.24 73.54 126.21 82.37 118.35 C 90.08 111.18 100.39 107.55 110.62 105.86 C 123.90 104.45 137.36 105.44 150.35 108.51 C 150.73 102.53 150.52 96.04 146.99 90.94 C 142.33 84.12 134.01 80.83 126.01 80.31 C 110.34 79.24 94.82 83.38 80.28 88.84 C 80.05 80.62 80.13 72.40 80.22 64.18 C 90.08 59.22 101.19 57.42 112.00 55.78 C 125.26 54.90 139.05 54.39 151.73 59.04 C 164.57 62.86 175.97 72.50 180.44 85.31 C 181.93 89.72 182.79 94.35 182.70 99.01 C 182.73 118.36 182.69 137.71 182.71 157.06 C 183.00 161.12 183.92 165.97 187.65 168.28 C 193.96 170.85 201.23 168.36 206.44 164.44 C 215.86 157.15 220.40 145.45 222.83 134.15 C 225.03 124.91 224.80 115.36 224.64 105.94 C 223.94 83.79 214.53 61.86 198.15 46.79 C 182.16 31.28 159.83 24.16 138.02 22.49 C 119.88 21.75 101.16 22.27 84.10 29.17 C 72.33 34.14 61.15 40.99 52.39 50.39 C 36.80 66.69 28.56 88.86 26.12 111.02 C 23.84 131.54 26.13 152.79 34.09 171.93 C 40.37 186.19 50.22 198.99 63.02 207.98 C 74.74 216.13 88.16 221.94 102.18 224.70 C 118.06 227.54 134.36 228.38 150.41 226.55 C 170.73 225.11 190.84 220.91 209.97 213.89 C 210.28 219.94 210.10 226.01 210.16 232.07 C 210.08 233.90 210.47 236.73 207.94 236.99 C 189.72 243.10 170.76 247.05 151.62 248.64 C 128.03 251.05 103.79 249.42 81.15 242.08 C 56.36 234.22 33.51 218.62 19.29 196.59 C 11.88 185.67 7.17 173.18 3.67 160.52 C 1.52 152.65 0.94 144.49 0.00 136.43 L 0.00 118.56 C 1.09 106.15 2.89 93.72 6.69 81.82 C 14.50 56.49 30.89 33.61 53.44 19.44 C 64.26 12.27 76.48 7.51 88.92 4.01 C 96.01 1.98 103.39 1.30 110.62 0.00 M 118.74 130.59 C 111.76 131.92 104.37 135.90 102.68 143.37 C 102.33 148.08 101.66 153.33 104.46 157.48 C 107.84 163.74 115.31 165.97 121.98 166.17 C 132.36 165.79 142.24 160.83 149.54 153.58 C 150.69 152.73 150.44 151.27 150.50 150.03 C 150.47 144.20 150.47 138.37 150.49 132.54 C 140.10 130.35 129.31 128.73 118.74 130.59 Z" />
</g>
</svg>

<?xml version="1.0" encoding="utf-8"?>
<!-- Generator: Adobe Illustrator 26.0.3, SVG Export Plug-In . SVG Version: 6.00 Build 0)  -->
<svg version="1.1" id="Layer_1" xmlns="http://www.w3.org/2000/svg" xmlns:xlink="http://www.w3.org/1999/xlink" x="0px" y="0px"
	 viewBox="0 0 250 250" style="enable-background:new 0 0 250 250;" xml:space="preserve">
<style type="text/css">
	.st0{fill:#FFFFFF;}
	.st1{fill:#2B2A29;}
</style>
<g id="_x23_ffffffff">
	<path class="st0" d="M118.7,130.6c10.6-1.9,21.4-0.2,31.8,1.9c0,5.8,0,11.7,0,17.5c-0.1,1.2,0.2,2.7-1,3.6
		c-7.3,7.2-17.2,12.2-27.6,12.6c-6.7-0.2-14.1-2.4-17.5-8.7c-2.8-4.1-2.1-9.4-1.8-14.1C104.4,135.9,111.8,131.9,118.7,130.6z"/>
</g>
<g id="_x23_2b2a29ff">
	<path class="st1" d="M110.6,0h32.8c12.7,1.7,25.4,4.1,37.3,9.1c27.8,10.6,51.4,32.6,61.9,60.6c4.3,9.8,5.8,20.4,7.4,30.9v19.9
		c-1.4,17-5.8,34.4-16.2,48.3c-9,12.1-23.1,20.5-38.1,22.1c-10.3,1.2-21.7,1.1-30.6-4.8c-4.5-2.9-6.6-7.9-9.7-12
		c-10.6,11.2-25.9,17.4-41.3,17.4c-12.1,0.3-24.4-3.8-33.1-12.2c-7.8-7.5-12.1-18.4-11.5-29.1c-0.6-11.8,4.2-23.8,13-31.7
		c7.7-7.2,18-10.8,28.2-12.5c13.3-1.4,26.7-0.4,39.7,2.7c0.4-6,0.2-12.5-3.4-17.6c-4.7-6.8-13-10.1-21-10.6
		c-15.7-1.1-31.2,3.1-45.7,8.5c-0.2-8.2-0.2-16.4-0.1-24.7c9.9-5,21-6.8,31.8-8.4c13.3-0.9,27.1-1.4,39.7,3.3
		c12.8,3.8,24.2,13.5,28.7,26.3c1.5,4.4,2.3,9,2.3,13.7c0,19.3,0,38.7,0,58c0.3,4.1,1.2,8.9,4.9,11.2c6.3,2.6,13.6,0.1,18.8-3.8
		c9.4-7.3,14-19,16.4-30.3c2.2-9.2,2-18.8,1.8-28.2c-0.7-22.2-10.1-44.1-26.5-59.2c-16-15.5-38.3-22.6-60.1-24.3
		c-18.1-0.7-36.9-0.2-53.9,6.7c-11.8,5-22.9,11.8-31.7,21.2C36.8,66.7,28.6,88.9,26.1,111c-2.3,20.5,0,41.8,8,60.9
		C40.4,186.2,50.2,199,63,208c11.7,8.2,25.1,14,39.2,16.7c15.9,2.8,32.2,3.7,48.2,1.9c20.3-1.4,40.4-5.6,59.6-12.7
		c0.3,6.1,0.1,12.1,0.2,18.2c-0.1,1.8,0.3,4.7-2.2,4.9c-18.2,6.1-37.2,10.1-56.3,11.6c-23.6,2.4-47.8,0.8-70.5-6.6
		c-24.8-7.9-47.6-23.5-61.9-45.5c-7.4-10.9-12.1-23.4-15.6-36.1c-2.2-7.9-2.7-16-3.7-24.1v-17.9c1.1-12.4,2.9-24.8,6.7-36.7
		c7.8-25.3,24.2-48.2,46.8-62.4C64.3,12.3,76.5,7.5,88.9,4C96,2,103.4,1.3,110.6,0 M118.7,130.6c-7,1.3-14.4,5.3-16.1,12.8
		c-0.3,4.7-1,10,1.8,14.1c3.4,6.3,10.8,8.5,17.5,8.7c10.4-0.4,20.3-5.3,27.6-12.6c1.2-0.9,0.9-2.3,1-3.6c0-5.8,0-11.7,0-17.5
		C140.1,130.4,129.3,128.7,118.7,130.6z"/>
</g>
</svg>
